X: 37387
T: Sleeping Under The Tables
R: reel
M: 4/4
K: Adorian
B|:cd{/g} ed cAGE|AD ~D2 ~A3 B|cd{/g} ed cdef|(3gfe af gedB|
cd{/g} ed cAGE|AD ~D2 ~A3 B|cd{/g} ed cAGB|1 Ad{/e} d^c d zAB:|2 Add^c d zcd||
|:ea{/b} ag {/b} agea|{/b} gedc BG{/A} G{/F}G|eg{/a} gf {/a}gedg|ed (3gfe dG (3Bcd|
e z{/b} ag {/b}agea|{/b} gedc BG{/A} G{/F}G|ABcd eg{/a} g{/f}g|dBGB {/c} BA{/B} A{/G}A:|

